battery-heart-variant.svg

<svg fill="currentColor" viewBox="0 0 24 24"><path d="M16.67 4H15V2H9v2H7.33A1.34 1.34 0 0 0 6 5.33v15.34A1.34 1.34 0 0 0 7.33 22h9.34A1.34 1.34 0 0 0 18 20.67V5.33A1.34 1.34 0 0 0 16.67 4m-4.09 11.64-.58.53-.58-.53C9.36 13.77 8 12.54 8 11a2.18 2.18 0 0 1 2.2-2.2 2.4 2.4 0 0 1 1.8.83 2.4 2.4 0 0 1 1.8-.83A2.18 2.18 0 0 1 16 11c0 1.54-1.36 2.77-3.42 4.64"/></svg>

<svg  viewBox="0 0 24 24" fill="currentColor"><path  d="M16.67 4H15V2H9V4H7.33A1.34 1.34 0 0 0 6 5.33V20.67A1.34 1.34 0 0 0 7.33 22H16.67A1.34 1.34 0 0 0 18 20.67V5.33A1.34 1.34 0 0 0 16.67 4M12.58 15.64L12 16.17L11.42 15.64C9.36 13.77 8 12.54 8 11A2.18 2.18 0 0 1 10.2 8.8A2.4 2.4 0 0 1 12 9.63A2.4 2.4 0 0 1 13.8 8.8A2.18 2.18 0 0 1 16 11C16 12.54 14.64 13.77 12.58 15.64Z"/></svg>
